svg/l/BQ-SE.svg

<svg width="32" height="24" viewBox="0 0 32 24" fill="none" xmlns="http://www.w3.org/2000/svg">
<g clip-path="url(#clip0_270_67564)">
<rect width="32" height="24" fill="white"/>
<path fill-rule="evenodd" clip-rule="evenodd" d="M0 0H32V24H0V0Z" fill="#00268D"/>
<path d="M1 1H31V23H1V1Z" fill="#00268D" stroke="#E31D1C" stroke-width="2"/>
<rect x="15" width="2" height="24" fill="#E31D1C"/>
<rect y="13" width="2" height="32" transform="rotate(-90 0 13)" fill="#E31D1C"/>
<path d="M11.6088 16C11.8778 16 25 16 25 16L23.5841 14.7239C23.5841 14.7239 20.7528 12.2005 20.5706 12.0849C20.3884 11.9692 20.0874 11.9193 19.7449 12.2869C19.4023 12.6544 19.2059 12.0849 18.9207 12.0849C18.6355 12.0849 18.5149 12.0849 18.1011 12.5565C17.6874 13.028 16.1973 14.7239 16.1973 14.7239H14.0075C14.0075 14.7239 13.6381 14.4453 13.4276 14.5447C13.2171 14.6441 12.0312 13.4452 11.6088 13.3557C11.1864 13.2661 10.9085 13.6806 10.9085 14.0105C10.9085 14.3404 10.7098 13.7082 10.3056 13.8938C9.90147 14.0794 10.0318 14.5447 10.0318 14.5447C10.0318 14.5447 11.3398 16 11.6088 16Z" fill="#059334"/>
<path fill-rule="evenodd" clip-rule="evenodd" d="M15.5048 11.3012L14.5785 12L14.9184 10.8457L14 10.1391H15.1441L15.5048 9L15.887 10.1391H17L16.0896 10.8457L16.4357 12L15.5048 11.3012Z" fill="#FEDA00"/>
</g>
<defs>
<clipPath id="clip0_270_67564">
<rect width="32" height="24" fill="white"/>
</clipPath>
</defs>
</svg>

<svg width="32" height="24" fill="none" xmlns="http://www.w3.org/2000/svg">
  <mask id="a" maskUnits="userSpaceOnUse" x="0" y="0" width="32" height="24">
    <path fill="#fff" d="M0 0h32v24H0z"/>
  </mask>
  <g mask="url(#a)">
    <path fill-rule="evenodd" clip-rule="evenodd" d="M0 0h32v24H0V0z" fill="#00268D"/>
    <path d="M1 1h30v22H1V1z" fill="#00268D" stroke="#E31D1C" stroke-width="2"/>
    <path fill="#E31D1C" d="M15 0h2v24h-2z"/>
    <path fill="#E31D1C" d="M0 13v-2h32v2z"/>
    <path d="M16.447 6.106L16 5.882l-.447.224-10 5-1.79.894 1.79.894 10 5 .447.224.447-.224 10-5 1.79-.894-1.79-.894-10-5z" fill="#fff" stroke="#E31D1C" stroke-width="2"/>
    <mask id="b" maskUnits="userSpaceOnUse" x="1" y="4" width="30" height="16">
      <path d="M16.447 6.106L16 5.882l-.447.224-10 5-1.79.894 1.79.894 10 5 .447.224.447-.224 10-5 1.79-.894-1.79-.894-10-5z" fill="#fff" stroke="#fff" stroke-width="2"/>
    </mask>
    <g mask="url(#b)">
      <path d="M11.609 16H25l-1.416-1.276s-2.831-2.524-3.013-2.64c-.183-.115-.484-.165-.826.203-.343.367-.54-.202-.824-.202-.285 0-.406 0-.82.471l-1.904 2.168h-2.19s-.369-.279-.58-.18c-.21.1-1.396-1.099-1.818-1.188-.423-.09-.7.325-.7.655s-.2-.303-.603-.117c-.405.185-.274.65-.274.65S11.34 16 11.609 16z" fill="#059334"/>
      <path fill-rule="evenodd" clip-rule="evenodd" d="M15.505 11.301l-.927.699.34-1.154-.918-.707h1.144L15.504 9l.383 1.14H17l-.91.706.346 1.154-.931-.699z" fill="#FEDA00"/>
    </g>
  </g>
</svg>
